X:1
T:Title
%%score { ( 1 3 ) | 2 }
L:1/8
Q:1/4=120
M:6/4
K:A
V:1 treble nm="Grand Piano"
V:3 treble 
V:2 bass 
V:1
 [CE]2 [DF]2 [DG]2 [CA]2 [Fd]2 [Ec]2 | [^Dc]4 [DF]2 [DB]4 [DB]2 | G2 =G2 ^G2 c4 B2 | E12 | %4
w: B.~D.~Ackley * * * * *||||
 [CE]2 [DF]2 [DG]2 [CA]2 [Fd]2 [Ec]2 | [^Dc]4 [DF]2 [DB]4 [DA]2 | G2 =G2 ^G2 c4 B2 | [CA]12 | %8
w: ||||
 [Fd]2 [Fc]2 [Fd]2 [DF]6 | [CE]2 [=C^D]2 [^CE]2 [Ec]6 | A2 G2 A2 [^Dc]4 [DF]2 | B12 | %12
w: ||||
 [CE]2 [DF]2 [DG]2 [CA]2 [Fd]2 [Ec]2 | [^Dc]2 [DB]2 [DA]2 [DF]4 F2 | E2 ^D2 E2 c4 B2 | [CA]12 |] %16
w: ||||
V:2
 [A,,A,]2 [D,A,]2 [B,,E,]2 [A,,E,]2 [A,,A,]2 [A,,A,]2 | [B,,A,]4 [B,,A,]2 [B,,F,]4 [B,,B,]2 | %2
 [E,B,D]2 [E,^A,D]2 [E,B,D]2 [E,=A,E]4 [E,G,D]2 | [A,,A,]4 [^A,,=G,]2 [B,,^G,]6 | %4
 [A,,A,]2 [D,A,]2 [B,,E,]2 [A,,E,]2 [A,,A,]2 [A,,A,]2 | [B,,A,]4 [B,,A,]2 [B,,F,]4 [B,,B,]2 | %6
 [E,B,D]2 [E,^A,D]2 [B,D]2 [E,=A,E]4 [E,G,D]2 | [A,,E,A,]12 | [D,A,]2 [D,A,]2 [D,A,]2 [D,A,]6 | %9
 [A,,A,]2 [A,,A,]2 [A,,A,]2 [A,,A,]6 | [F,A,C]2 [F,A,C]2 [F,A,C]2 [B,,F,]4 [B,,A,]2 | %11
 [E,G,E]4 [F,A,]2 [E,G,]6 | [A,,A,]2 [D,A,]2 [B,,E,]2 [A,,E,]2 [A,,A,]2 [A,,A,]2 | %13
 [B,,F,]2 [B,,F,]2 [B,,F,]2 [B,,B,]4 [^D,A,=C]2 | %14
 [E,A,C]2 [^E,A,=C]2 [=E,A,^C]2 [E,G,E]4 [E,G,D]2 | [A,,E,A,]12 |] %16
V:3
 x12 | x12 | x12 | C4 C2 D6 | x12 | x12 | x12 | x12 | x12 | x12 | x12 | z4 ^D2 =D6 | x12 | x12 | %14
 x12 | x12 |] %16

